!!!OTL: Once in a While
!!!COM: Edwards, Michael
!!!LYR: Green, Bud
!!!LAR: Frey, Hugo
!! "Once in a While" by Michael Edwards, lyrics by Bud Green
!! from "Barbershop Memories" compiled and arranged by Hugo Frey
!! copyright 1975 by EMI Music Publ. Ltd.; pp. 4-5; in E- major
!! NOTE:  The second ending is encoded.
**kern	**kern	**kern	**kern
*Ivox	*Ivox	*Ivox	*Ivox
*M2/2	*M2/2	*M2/2	*M2/2
*E-:	*E-:	*E-:	*E-:
=1	=1	=1	=1
[1B-	[1e-	6E-	[1g
.	.	6E-	.
.	.	6E-	.
.	.	[2F	.
=2	=2	=2	=2
1B-]	1e-]	6F]	1g]
.	.	6E-	.
.	.	6F	.
.	.	6G	.
.	.	6B-	.
.	.	6c	.
=3	=3	=3	=3
[1C	{2B-	6d	[1en
.	.	6d	.
.	.	6d	.
.	4A-	4c	.
.	4G	4B-	.
=4	=4	=4	=4
1C]	1B-}	1d	1e-]
=5	=5	=5	=5
6F	6A-	6c	6f
6F	6A-	6c	6f
6F	6A-	6c	6f
4F	4G	4B-	4c
4F	4F	4A-	4c
=6	=6	=6	=6
2F	2A-	2c	2e-
6BB-	6A-	6D	6f
6BB-	6A-	6E-	6e-
6BB-	6A-	6F	6d
=7	=7	=7	=7
{2E-	{1G	[1B-	{2c
2En	.	.	2c#
=8	=8	=8	=8
1F}	1A-}	1B-]	1d}
=9	=9	=9	=9
[1B-	[1e-	6E-	[1g
.	.	6E-	.
.	.	6E-	.
.	.	[2F	.
=10	=10	=10	=10
1B-]	1e-]	6F]	1g]
.	.	6E-	.
.	.	6F	.
.	.	6G	.
.	.	6B-	.
.	.	6c	.
=11	=11	=11	=11
[1C	{2B-	6d	[1en
.	.	6d	.
.	.	6d	.
.	4A-	4c	.
.	4G	4B-	.
=12	=12	=12	=12
1C]	1B-}	1d	1e]
=13	=13	=13	=13
6F	6A-	6c	6f
6F	6A-	6c	6f
6F	6A-	6c	6f
4F	4G	4B-	4c
4F	4F	4A-	4c
=14	=14	=14	=14
2F	2A-	2c	2e-
6BB-	6A-	6D	6f
6BB-	6A-	6E-	6e-
6BB-	6A-	6F	6d
=15	=15	=15	=15
{6E-	{6G	[{1E-	{6e-
3F}	3A-}	.	3c}
6G	6B-	.	6e-
6G	6B-	.	6e-
6F	6A-	.	6c
=16	=16	=16	=16
{2G	{2B-	2E-]	{2e-
8F#}	8An}	8D}	8d}
8r	8r	8r	8r
4r	4r	4D	4r
=17	=17	=17	=17
2GG	2D	2d	2Bn
6GG	6En	6G	6d
6GG	6F#	6An	6d
6GG	6G	6Bn	6d
=18	=18	=18	=18
4AAn	4G	4c	4en
{2AA	{2G	2.c	{2e
4D}	4F#}	.	4d}
=19	=19	=19	=19
2GG	2D	2Bn	2d
6GG	6G	6En	6d
6GG	6An	6F#	6d
6GG	6Bn	6G	6d
=20	=20	=20	=20
{2C	{2G	2.An	{2en
4D}	4F#}	.	4d}
4D	4F#	4D	4A#
=21	=21	=21	=21
2GG	2D	2d	2Bn
6GG	6En	6G	6d
6GG	6F#	6An	6d
6GG	6G	6Bn	6d
=22	=22	=22	=22
4AAn	4G	4c	4en
2AA	2G	2c	{4e
.	.	.	4e-}
4D	4F#	4Bn	4d
=23	=23	=23	=23
4GG	4Bn	4G	4d
4GG	4B	4G	4d
4En	4G	4B-	4d-
4E	4G	4B-	4d-
=24	=24	=24	=24
2F	1A-	1F	{4c
.	.	.	4e-
{4BB-	.	.	2dn}
4B-}	.	.	.
=25	=25	=25	=25
[1B-	[1e-	6E-	[1g
.	.	6E-	.
.	.	6E-	.
.	.	[2F	.
=26	=26	=26	=26
1B-]	1e-]	6F]	1g]
.	.	6E-	.
.	.	6F	.
.	.	6G	.
.	.	6B-	.
.	.	6c	.
=27	=27	=27	=27
[1C	{2B-	6d	[1en
.	.	6d	.
.	.	6d	.
.	4A-	4c	.
.	4G	4B-	.
=28	=28	=28	=28
1C]	1B-	1d	1e]
=29	=29	=29	=29
6F	6A-	6c	6f
6F	6A-	6c	6f
6F	6A-	6c	6f
4F	4G	4B-	4c
4F	4F	4A-	4c
=30	=30	=30	=30
2F	2A-	2c	2e-
6BB-	6A-	6B-	6d
6BB-	6A-	6c	6e-
6BB-	6A-	6d	6f
=31	=31	=31	=31
[1E	[1G	[1B-	[1e-
=32	=32	=32	=32
2E-]	2G]	2B-]	2e-]
2r	2r	2r	2r
==	==	==	==
*-	*-	*-	*-
